Newaita-dark/devices/64/media-flash-ms.svg

<svg height="64pt" viewBox="0 0 64 64" width="64pt" xmlns="http://www.w3.org/2000/svg" xmlns:xlink="http://www.w3.org/1999/xlink"><linearGradient id="a"><stop offset="0" stop-opacity=".27451"/><stop offset="1" stop-opacity="0"/></linearGradient><linearGradient id="b" gradientUnits="userSpaceOnUse" x1="31.753043" x2="31.753043" xlink:href="#a" y1="55.96441" y2="58.61049775004"/><linearGradient id="c"><stop offset="0" stop-opacity=".313725"/><stop offset=".222222" stop-opacity=".27451"/><stop offset="1" stop-opacity="0"/></linearGradient><radialGradient id="d" cx="450.90894" cy="189.57936" gradientTransform="matrix(.00000035 -.156265 -.281277 -.0000002 100.953687 127.087208)" gradientUnits="userSpaceOnUse" r="21.166656" xlink:href="#c"/><radialGradient id="e" cx="450.90894" cy="189.57936" gradientTransform="matrix(-.00000035 .156265 .281277 .0000002 -37.447624 -15.158419)" gradientUnits="userSpaceOnUse" r="21.166656" xlink:href="#c"/><radialGradient id="f" cx="450.90894" cy="189.57936" gradientTransform="matrix(-.00000035 -.156265 .281277 -.0000002 -37.447624 127.087208)" gradientUnits="userSpaceOnUse" r="21.166656" xlink:href="#c"/><radialGradient id="g" cx="450.90894" cy="189.57936" gradientTransform="matrix(.00000035 .156265 -.281277 .0000002 100.953683 -15.15842)" gradientUnits="userSpaceOnUse" r="21.166656" xlink:href="#c"/><linearGradient id="h" gradientUnits="userSpaceOnUse" x1="61.521508" x2="61.521508" xlink:href="#a" y1="55.96441" y2="58.61049775004"/><radialGradient id="i" cx="450.90894" cy="189.57936" gradientTransform="matrix(-.00000035 .156265 .281277 .0000002 -7.679157 -15.158419)" gradientUnits="userSpaceOnUse" r="21.166656" xlink:href="#c"/><radialGradient id="j" cx="450.90894" cy="189.57936" gradientTransform="matrix(-.00000035 -.156265 .281277 -.0000002 -7.679157 127.087208)" gradientUnits="userSpaceOnUse" r="21.166656" xlink:href="#c"/><radialGradient id="k" cx="450.90894" cy="189.57936" gradientTransform="matrix(.00000035 -.156265 -.281277 -.0000002 71.185217 127.087208)" gradientUnits="userSpaceOnUse" r="21.166656" xlink:href="#c"/><radialGradient id="l" cx="450.90894" cy="189.57936" gradientTransform="matrix(.00000035 .156265 -.281277 .0000002 71.185213 -15.15842)" gradientUnits="userSpaceOnUse" r="21.166656" xlink:href="#c"/><linearGradient id="m" gradientUnits="userSpaceOnUse" x1="31.753048" x2="31.753048" y1="61.36004350008" y2=".500034"><stop offset="0" stop-color="#78909c"/><stop offset="1" stop-color="#90a4ae"/></linearGradient><linearGradient id="n" gradientUnits="userSpaceOnUse" x1="31.753048" x2="31.753048" xlink:href="#a" y1=".500034" y2="64.00613"/><path d="m15.214844 56.011719h3.308594v2.703125h-3.308594zm0 0" fill="url(#b)"/><path d="m48.292969 55.964844h5.289062v-2.648438h-5.289062zm0 0" fill="url(#d)"/><path d="m15.214844 55.964844h-5.292969v2.644531h5.292969zm0 0" fill="url(#e)"/><path d="m15.214844 55.964844h-5.292969v-2.648438h5.292969zm0 0" fill="url(#f)"/><path d="m48.292969 55.964844h5.289062v2.644531h-5.289062zm0 0" fill="url(#g)"/><path d="m44.984375 56.011719h3.308594v2.703125h-3.308594zm0 0" fill="url(#h)"/><path d="m44.984375 55.964844h-5.292969v2.644531h5.292969zm0 0" fill="url(#i)"/><path d="m44.984375 55.964844h-5.292969v-2.648438h5.292969zm0 0" fill="url(#j)"/><path d="m18.523438 55.964844h5.292968v-2.648438h-5.292968zm0 0" fill="url(#k)"/><path d="m18.523438 55.964844h5.292968v2.644531h-5.292968zm0 0" fill="url(#l)"/><path d="m23.816406 5.804688c-.699218 0-1.371094.277343-1.863281.769531l-10.585937 10.585937c-.492188.492188-.769532 1.164063-.769532 1.863282v34.398437c0 1.453125 1.179688 2.632813 2.632813 2.632813h7.9375v-1.308594c0-1.46875 1.179687-2.648438 2.648437-2.648438h15.875c1.464844 0 2.644532 1.179688 2.644532 2.648438v1.308594h7.941406c1.453125 0 2.632812-1.179688 2.632812-2.632813v-44.984375c0-1.453125-1.179687-2.632812-2.632812-2.632812zm0 0" fill="url(#m)"/><path d="m23.816406 51.117188c-1.46875 0-2.648437 1.183593-2.648437 2.648437v.980469c0-1.46875 1.179687-2.648438 2.648437-2.648438h15.875c1.464844 0 2.644532 1.179688 2.644532 2.648438v-.980469c0-1.464844-1.179688-2.648437-2.644532-2.648437zm-13.21875 1.324218v.980469c0 1.453125 1.179688 2.632813 2.632813 2.632813h7.9375v-.980469h-7.9375c-1.453125 0-2.632813-1.179688-2.632813-2.632813zm42.3125 0c0 1.453125-1.179687 2.632813-2.632812 2.632813h-7.941406v.980469h7.941406c1.453125 0 2.632812-1.179688 2.632812-2.632813zm0 0" fill-opacity=".235294"/><path d="m25.136719 11.097656c-.699219 0-1.367188.277344-1.859375.769532l-6.617188 6.617187c-.492187.492187-.769531 1.164063-.769531 1.859375v25.140625c0 1.453125 1.175781 2.632813 2.632813 2.632813h26.460937c1.453125 0 2.632813-1.179688 2.632813-2.632813v-31.753906c0-1.453125-1.179688-2.632813-2.632813-2.632813zm0 0" fill="url(#n)"/><path d="m15.890625 45.484375v.992187c0 1.453126 1.175781 2.632813 2.632813 2.632813h26.460937c1.453125 0 2.632813-1.179687 2.632813-2.632813v-.992187c0 1.453125-1.179688 2.632813-2.632813 2.632813h-26.460937c-1.457032 0-2.632813-1.179688-2.632813-2.632813zm0 0" fill="#fff" fill-opacity=".392157"/><path d="m25.136719 11.097656c-.699219 0-1.367188.277344-1.859375.769532l-6.617188 6.617187c-.492187.492187-.769531 1.164063-.769531 1.859375v.980469c0-.699219.277344-1.367188.769531-1.859375l6.617188-6.617188c.492187-.492187 1.160156-.769531 1.859375-.769531h19.847656c1.453125 0 2.632813 1.175781 2.632813 2.632813v-.980469c0-1.453125-1.179688-2.632813-2.632813-2.632813zm0 0" fill-opacity=".235294"/><path d="m201.074548-126.227227c-5.593216 0-10.936455 2.218538-14.873579 6.155662l-52.932446 52.932445c-3.937124 3.937124-6.155662 9.311611-6.155662 14.87358v201.105795c0 11.62389 9.405352 21.060489 21.060489 21.060489h211.667287c11.62389 0 21.060489-9.436599 21.060489-21.060489v-254.006994c0-11.62389-9.436599-21.060488-21.060489-21.060488zm0 0" fill="none" stroke="#212121" stroke-linecap="round" stroke-linejoin="round" stroke-width="3" transform="matrix(.125012 0 0 .125012 0 26.877566)"/><path d="m23.816406 5.804688c-.699218 0-1.371094.277343-1.863281.769531l-10.585937 10.585937c-.492188.492188-.769532 1.164063-.769532 1.863282v.652343c0-.699219.277344-1.367187.769532-1.863281l10.585937-10.582031c.492187-.496094 1.164063-.773438 1.863281-.773438h26.460938c1.453125 0 2.632812 1.179688 2.632812 2.632813v-.652344c0-1.453125-1.179687-2.632812-2.632812-2.632812zm0 0" fill="#fff" fill-opacity=".392157"/><path d="m720.049358 175.495054c-21.139714 0-41.452735 8.385026-56.333204 23.265495l-320.048181 320.048181c-14.880469 14.880469-23.265495 35.193491-23.265495 56.333204v1039.979441c0 43.932813 35.665886 79.598698 79.598699 79.598698h239.977086v-39.563151c0-44.405209 35.665886-80.071095 80.071095-80.071095h479.954173c44.28711 0 79.952996 35.665886 79.952996 80.071095v39.563151h240.095185c43.932813 0 79.598699-35.665885 79.598699-79.598698v-1360.027622c0-43.932813-35.665886-79.598699-79.598699-79.598699zm0 0" fill="none" stroke="#212121" stroke-linecap="round" stroke-linejoin="round" stroke-width="11.338583" transform="scale(.0330761)"/></svg>

<?xml version="1.0" encoding="UTF-8"?>
<svg xmlns="http://www.w3.org/2000/svg" xmlns:xlink="http://www.w3.org/1999/xlink" width="64pt" height="64pt" viewBox="0 0 64 64" version="1.1">
<defs>
<linearGradient id="linear0" gradientUnits="userSpaceOnUse" x1="254" y1="233.5" x2="254" y2="254.66667" gradientTransform="matrix(0.125012,0,0,0.125012,-0.00000500048,26.774108)">
<stop offset="0" style="stop-color:rgb(0%,0%,0%);stop-opacity:0.27451;"/>
<stop offset="1" style="stop-color:rgb(0%,0%,0%);stop-opacity:0;"/>
</linearGradient>
<radialGradient id="radial0" gradientUnits="userSpaceOnUse" cx="450.90894" cy="189.57936" fx="450.90894" fy="189.57936" r="21.166656" gradientTransform="matrix(0.000000348341,-0.156265,-0.281277,-0.000000203077,100.953687,127.087208)">
<stop offset="0" style="stop-color:rgb(0%,0%,0%);stop-opacity:0.313725;"/>
<stop offset="0.222222" style="stop-color:rgb(0%,0%,0%);stop-opacity:0.27451;"/>
<stop offset="1" style="stop-color:rgb(0%,0%,0%);stop-opacity:0;"/>
</radialGradient>
<radialGradient id="radial1" gradientUnits="userSpaceOnUse" cx="450.90894" cy="189.57936" fx="450.90894" fy="189.57936" r="21.166656" gradientTransform="matrix(-0.000000348341,0.156265,0.281277,0.000000203077,-37.447624,-15.158419)">
<stop offset="0" style="stop-color:rgb(0%,0%,0%);stop-opacity:0.313725;"/>
<stop offset="0.222222" style="stop-color:rgb(0%,0%,0%);stop-opacity:0.27451;"/>
<stop offset="1" style="stop-color:rgb(0%,0%,0%);stop-opacity:0;"/>
</radialGradient>
<radialGradient id="radial2" gradientUnits="userSpaceOnUse" cx="450.90894" cy="189.57936" fx="450.90894" fy="189.57936" r="21.166656" gradientTransform="matrix(-0.000000348341,-0.156265,0.281277,-0.000000203077,-37.447624,127.087208)">
<stop offset="0" style="stop-color:rgb(0%,0%,0%);stop-opacity:0.313725;"/>
<stop offset="0.222222" style="stop-color:rgb(0%,0%,0%);stop-opacity:0.27451;"/>
<stop offset="1" style="stop-color:rgb(0%,0%,0%);stop-opacity:0;"/>
</radialGradient>
<radialGradient id="radial3" gradientUnits="userSpaceOnUse" cx="450.90894" cy="189.57936" fx="450.90894" fy="189.57936" r="21.166656" gradientTransform="matrix(0.000000348341,0.156265,-0.281277,0.000000203077,100.953683,-15.15842)">
<stop offset="0" style="stop-color:rgb(0%,0%,0%);stop-opacity:0.313725;"/>
<stop offset="0.222222" style="stop-color:rgb(0%,0%,0%);stop-opacity:0.27451;"/>
<stop offset="1" style="stop-color:rgb(0%,0%,0%);stop-opacity:0;"/>
</radialGradient>
<linearGradient id="linear1" gradientUnits="userSpaceOnUse" x1="254" y1="233.5" x2="254" y2="254.66667" gradientTransform="matrix(0.125012,0,0,0.125012,29.76846,26.774108)">
<stop offset="0" style="stop-color:rgb(0%,0%,0%);stop-opacity:0.27451;"/>
<stop offset="1" style="stop-color:rgb(0%,0%,0%);stop-opacity:0;"/>
</linearGradient>
<radialGradient id="radial4" gradientUnits="userSpaceOnUse" cx="450.90894" cy="189.57936" fx="450.90894" fy="189.57936" r="21.166656" gradientTransform="matrix(-0.000000348341,0.156265,0.281277,0.000000203077,-7.679157,-15.158419)">
<stop offset="0" style="stop-color:rgb(0%,0%,0%);stop-opacity:0.313725;"/>
<stop offset="0.222222" style="stop-color:rgb(0%,0%,0%);stop-opacity:0.27451;"/>
<stop offset="1" style="stop-color:rgb(0%,0%,0%);stop-opacity:0;"/>
</radialGradient>
<radialGradient id="radial5" gradientUnits="userSpaceOnUse" cx="450.90894" cy="189.57936" fx="450.90894" fy="189.57936" r="21.166656" gradientTransform="matrix(-0.000000348341,-0.156265,0.281277,-0.000000203077,-7.679157,127.087208)">
<stop offset="0" style="stop-color:rgb(0%,0%,0%);stop-opacity:0.313725;"/>
<stop offset="0.222222" style="stop-color:rgb(0%,0%,0%);stop-opacity:0.27451;"/>
<stop offset="1" style="stop-color:rgb(0%,0%,0%);stop-opacity:0;"/>
</radialGradient>
<radialGradient id="radial6" gradientUnits="userSpaceOnUse" cx="450.90894" cy="189.57936" fx="450.90894" fy="189.57936" r="21.166656" gradientTransform="matrix(0.000000348341,-0.156265,-0.281277,-0.000000203077,71.185217,127.087208)">
<stop offset="0" style="stop-color:rgb(0%,0%,0%);stop-opacity:0.313725;"/>
<stop offset="0.222222" style="stop-color:rgb(0%,0%,0%);stop-opacity:0.27451;"/>
<stop offset="1" style="stop-color:rgb(0%,0%,0%);stop-opacity:0;"/>
</radialGradient>
<radialGradient id="radial7" gradientUnits="userSpaceOnUse" cx="450.90894" cy="189.57936" fx="450.90894" fy="189.57936" r="21.166656" gradientTransform="matrix(0.000000348341,0.156265,-0.281277,0.000000203077,71.185213,-15.15842)">
<stop offset="0" style="stop-color:rgb(0%,0%,0%);stop-opacity:0.313725;"/>
<stop offset="0.222222" style="stop-color:rgb(0%,0%,0%);stop-opacity:0.27451;"/>
<stop offset="1" style="stop-color:rgb(0%,0%,0%);stop-opacity:0;"/>
</radialGradient>
<linearGradient id="linear2" gradientUnits="userSpaceOnUse" x1="254" y1="275.83334" x2="254" y2="-211" gradientTransform="matrix(0.125012,0,0,0.125012,0,26.877566)">
<stop offset="0" style="stop-color:rgb(47.058824%,56.470588%,61.176471%);stop-opacity:1;"/>
<stop offset="1" style="stop-color:rgb(56.470588%,64.313725%,68.235294%);stop-opacity:1;"/>
</linearGradient>
<linearGradient id="linear3" gradientUnits="userSpaceOnUse" x1="254" y1="-211" x2="254" y2="297" gradientTransform="matrix(0.125012,0,0,0.125012,0,26.877566)">
<stop offset="0" style="stop-color:rgb(0%,0%,0%);stop-opacity:0.27451;"/>
<stop offset="1" style="stop-color:rgb(0%,0%,0%);stop-opacity:0;"/>
</linearGradient>
</defs>
<g id="surface1">
<path style=" stroke:none;fill-rule:nonzero;fill:url(#linear0);" d="M 15.214844 56.011719 L 18.523438 56.011719 L 18.523438 58.714844 L 15.214844 58.714844 Z M 15.214844 56.011719 "/>
<path style=" stroke:none;fill-rule:nonzero;fill:url(#radial0);" d="M 48.292969 55.964844 L 53.582031 55.964844 L 53.582031 53.316406 L 48.292969 53.316406 Z M 48.292969 55.964844 "/>
<path style=" stroke:none;fill-rule:nonzero;fill:url(#radial1);" d="M 15.214844 55.964844 L 9.921875 55.964844 L 9.921875 58.609375 L 15.214844 58.609375 Z M 15.214844 55.964844 "/>
<path style=" stroke:none;fill-rule:nonzero;fill:url(#radial2);" d="M 15.214844 55.964844 L 9.921875 55.964844 L 9.921875 53.316406 L 15.214844 53.316406 Z M 15.214844 55.964844 "/>
<path style=" stroke:none;fill-rule:nonzero;fill:url(#radial3);" d="M 48.292969 55.964844 L 53.582031 55.964844 L 53.582031 58.609375 L 48.292969 58.609375 Z M 48.292969 55.964844 "/>
<path style=" stroke:none;fill-rule:nonzero;fill:url(#linear1);" d="M 44.984375 56.011719 L 48.292969 56.011719 L 48.292969 58.714844 L 44.984375 58.714844 Z M 44.984375 56.011719 "/>
<path style=" stroke:none;fill-rule:nonzero;fill:url(#radial4);" d="M 44.984375 55.964844 L 39.691406 55.964844 L 39.691406 58.609375 L 44.984375 58.609375 Z M 44.984375 55.964844 "/>
<path style=" stroke:none;fill-rule:nonzero;fill:url(#radial5);" d="M 44.984375 55.964844 L 39.691406 55.964844 L 39.691406 53.316406 L 44.984375 53.316406 Z M 44.984375 55.964844 "/>
<path style=" stroke:none;fill-rule:nonzero;fill:url(#radial6);" d="M 18.523438 55.964844 L 23.816406 55.964844 L 23.816406 53.316406 L 18.523438 53.316406 Z M 18.523438 55.964844 "/>
<path style=" stroke:none;fill-rule:nonzero;fill:url(#radial7);" d="M 18.523438 55.964844 L 23.816406 55.964844 L 23.816406 58.609375 L 18.523438 58.609375 Z M 18.523438 55.964844 "/>
<path style=" stroke:none;fill-rule:nonzero;fill:url(#linear2);" d="M 23.816406 5.804688 C 23.117188 5.804688 22.445312 6.082031 21.953125 6.574219 L 11.367188 17.160156 C 10.875 17.652344 10.597656 18.324219 10.597656 19.023438 L 10.597656 53.421875 C 10.597656 54.875 11.777344 56.054688 13.230469 56.054688 L 21.167969 56.054688 L 21.167969 54.746094 C 21.167969 53.277344 22.347656 52.097656 23.816406 52.097656 L 39.691406 52.097656 C 41.15625 52.097656 42.335938 53.277344 42.335938 54.746094 L 42.335938 56.054688 L 50.277344 56.054688 C 51.730469 56.054688 52.910156 54.875 52.910156 53.421875 L 52.910156 8.4375 C 52.910156 6.984375 51.730469 5.804688 50.277344 5.804688 Z M 23.816406 5.804688 "/>
<path style=" stroke:none;fill-rule:nonzero;fill:rgb(0%,0%,0%);fill-opacity:0.235294;" d="M 23.816406 51.117188 C 22.347656 51.117188 21.167969 52.300781 21.167969 53.765625 L 21.167969 54.746094 C 21.167969 53.277344 22.347656 52.097656 23.816406 52.097656 L 39.691406 52.097656 C 41.15625 52.097656 42.335938 53.277344 42.335938 54.746094 L 42.335938 53.765625 C 42.335938 52.300781 41.15625 51.117188 39.691406 51.117188 Z M 10.597656 52.441406 L 10.597656 53.421875 C 10.597656 54.875 11.777344 56.054688 13.230469 56.054688 L 21.167969 56.054688 L 21.167969 55.074219 L 13.230469 55.074219 C 11.777344 55.074219 10.597656 53.894531 10.597656 52.441406 Z M 52.910156 52.441406 C 52.910156 53.894531 51.730469 55.074219 50.277344 55.074219 L 42.335938 55.074219 L 42.335938 56.054688 L 50.277344 56.054688 C 51.730469 56.054688 52.910156 54.875 52.910156 53.421875 Z M 52.910156 52.441406 "/>
<path style=" stroke:none;fill-rule:nonzero;fill:url(#linear3);" d="M 25.136719 11.097656 C 24.4375 11.097656 23.769531 11.375 23.277344 11.867188 L 16.660156 18.484375 C 16.167969 18.976562 15.890625 19.648438 15.890625 20.34375 L 15.890625 45.484375 C 15.890625 46.9375 17.066406 48.117188 18.523438 48.117188 L 44.984375 48.117188 C 46.4375 48.117188 47.617188 46.9375 47.617188 45.484375 L 47.617188 13.730469 C 47.617188 12.277344 46.4375 11.097656 44.984375 11.097656 Z M 25.136719 11.097656 "/>
<path style=" stroke:none;fill-rule:nonzero;fill:rgb(100%,100%,100%);fill-opacity:0.392157;" d="M 15.890625 45.484375 L 15.890625 46.476562 C 15.890625 47.929688 17.066406 49.109375 18.523438 49.109375 L 44.984375 49.109375 C 46.4375 49.109375 47.617188 47.929688 47.617188 46.476562 L 47.617188 45.484375 C 47.617188 46.9375 46.4375 48.117188 44.984375 48.117188 L 18.523438 48.117188 C 17.066406 48.117188 15.890625 46.9375 15.890625 45.484375 Z M 15.890625 45.484375 "/>
<path style=" stroke:none;fill-rule:nonzero;fill:rgb(0%,0%,0%);fill-opacity:0.235294;" d="M 25.136719 11.097656 C 24.4375 11.097656 23.769531 11.375 23.277344 11.867188 L 16.660156 18.484375 C 16.167969 18.976562 15.890625 19.648438 15.890625 20.34375 L 15.890625 21.324219 C 15.890625 20.625 16.167969 19.957031 16.660156 19.464844 L 23.277344 12.847656 C 23.769531 12.355469 24.4375 12.078125 25.136719 12.078125 L 44.984375 12.078125 C 46.4375 12.078125 47.617188 13.253906 47.617188 14.710938 L 47.617188 13.730469 C 47.617188 12.277344 46.4375 11.097656 44.984375 11.097656 Z M 25.136719 11.097656 "/>
<path style="fill:none;stroke-width:3;stroke-linecap:round;stroke-linejoin:round;stroke:rgb(12.941176%,12.941176%,12.941176%);stroke-opacity:1;stroke-miterlimit:4;" d="M 201.074548 -126.227227 C 195.481332 -126.227227 190.138093 -124.008689 186.200969 -120.071565 L 133.268523 -67.13912 C 129.331399 -63.201996 127.112861 -57.827509 127.112861 -52.26554 L 127.112861 148.840255 C 127.112861 160.464145 136.518213 169.900744 148.17335 169.900744 L 359.840637 169.900744 C 371.464527 169.900744 380.901126 160.464145 380.901126 148.840255 L 380.901126 -105.166739 C 380.901126 -116.790629 371.464527 -126.227227 359.840637 -126.227227 Z M 201.074548 -126.227227 " transform="matrix(0.125012,0,0,0.125012,0,26.877566)"/>
<path style=" stroke:none;fill-rule:nonzero;fill:rgb(100%,100%,100%);fill-opacity:0.392157;" d="M 23.816406 5.804688 C 23.117188 5.804688 22.445312 6.082031 21.953125 6.574219 L 11.367188 17.160156 C 10.875 17.652344 10.597656 18.324219 10.597656 19.023438 L 10.597656 19.675781 C 10.597656 18.976562 10.875 18.308594 11.367188 17.8125 L 21.953125 7.230469 C 22.445312 6.734375 23.117188 6.457031 23.816406 6.457031 L 50.277344 6.457031 C 51.730469 6.457031 52.910156 7.636719 52.910156 9.089844 L 52.910156 8.4375 C 52.910156 6.984375 51.730469 5.804688 50.277344 5.804688 Z M 23.816406 5.804688 "/>
<path style="fill:none;stroke-width:11.338583;stroke-linecap:round;stroke-linejoin:round;stroke:rgb(12.941176%,12.941176%,12.941176%);stroke-opacity:1;stroke-miterlimit:4;" d="M 720.049358 175.495054 C 698.909644 175.495054 678.596623 183.88008 663.716154 198.760549 L 343.667973 518.80873 C 328.787504 533.689199 320.402478 554.002221 320.402478 575.141934 L 320.402478 1615.121375 C 320.402478 1659.054188 356.068364 1694.720073 400.001177 1694.720073 L 639.978263 1694.720073 L 639.978263 1655.156922 C 639.978263 1610.751713 675.644149 1575.085827 720.049358 1575.085827 L 1200.003531 1575.085827 C 1244.290641 1575.085827 1279.956527 1610.751713 1279.956527 1655.156922 L 1279.956527 1694.720073 L 1520.051712 1694.720073 C 1563.984525 1694.720073 1599.650411 1659.054188 1599.650411 1615.121375 L 1599.650411 255.093753 C 1599.650411 211.16094 1563.984525 175.495054 1520.051712 175.495054 Z M 720.049358 175.495054 " transform="matrix(0.0330761,0,0,0.0330761,0,0)"/>
</g>
</svg>
